src/client/assets/pup/icons/landslide.svg

<svg width="225" height="225" viewBox="0 0 225 225" fill="none" xmlns="http://www.w3.org/2000/svg">
<rect x="30.6863" y="112.711" width="116" height="116" transform="rotate(-45 30.6863 112.711)" fill="#B87333"/>
<g filter="url(#filter0_d_18_48)">
<path d="M110.648 128.731L76.825 152.441L110.648 184.482L186.404 110.788L149.878 76.8251L122.323 98.6128L110.648 128.731Z" fill="#4A3528"/>
<path d="M110.648 128.731L76.825 152.441L110.648 184.482L186.404 110.788L149.878 76.8251L122.323 98.6128L110.648 128.731Z" stroke="#4A3528" stroke-width="5"/>
</g>
<path d="M93.4862 99.8944L94.7678 90.5427H103.739L101.817 96.6903V102.458L93.4862 99.8944Z" fill="#4A3528"/>
<path d="M112.245 81.1507L118.139 70.4169L123.443 72.4295L126.391 82.4924L119.318 90.5427L112.245 81.1507Z" fill="#4A3528"/>
<path d="M70.8212 123.536L76.9566 107.504L90.0456 114.961L88.4095 128.01L70.8212 123.536Z" fill="#4A3528"/>
<g filter="url(#filter1_d_18_48)">
<mask id="path-5-inside-1_18_48" fill="white">
<path d="M27.3431 117.853C24.2189 114.729 24.2189 109.663 27.3431 106.539L106.539 27.3431C109.663 24.2189 114.729 24.2189 117.853 27.3431L197.049 106.539C200.173 109.663 200.173 114.729 197.049 117.853L117.853 197.049C114.729 200.173 109.663 200.173 106.539 197.049L27.3431 117.853Z"/>
</mask>
<g clip-path="url(#paint0_angular_18_48_clip_path)" data-figma-skip-parse="true" mask="url(#path-5-inside-1_18_48)"><g transform="matrix(0.0452548 0.0452548 -0.0452548 0.0452548 112.196 112.196)"><foreignObject x="-1250" y="-1250" width="2500" height="2500"><div xmlns="http://www.w3.org/1999/xhtml" style="background:conic-gradient(from 90deg,rgba(255, 255, 160, 1) 0deg,rgba(255, 215, 0, 1) 22.5deg,rgba(255, 255, 160, 1) 45deg,rgba(255, 215, 0, 1) 67.5deg,rgba(255, 255, 160, 1) 90deg,rgba(255, 215, 0, 1) 112.5deg,rgba(255, 255, 160, 1) 135deg,rgba(255, 215, 0, 1) 157.5deg,rgba(255, 255, 160, 1) 180deg,rgba(255, 215, 0, 1) 202.5deg,rgba(255, 255, 160, 1) 225deg,rgba(255, 215, 0, 1) 247.5deg,rgba(255, 255, 160, 1) 270deg,rgba(255, 215, 0, 1) 292.5deg,rgba(255, 255, 160, 1) 315deg,rgba(255, 215, 0, 1) 337.5deg,rgba(255, 255, 160, 0.9804) 360deg);height:100%;width:100%;opacity:1"></div></foreignObject></g></g><path d="M27.3431 106.539L38.6568 117.853L117.853 38.6568L106.539 27.3431L95.2254 16.0294L16.0294 95.2254L27.3431 106.539ZM117.853 27.3431L106.539 38.6568L185.735 117.853L197.049 106.539L208.362 95.2254L129.167 16.0294L117.853 27.3431ZM197.049 117.853L185.735 106.539L106.539 185.735L117.853 197.049L129.167 208.362L208.362 129.167L197.049 117.853ZM106.539 197.049L117.853 185.735L38.6568 106.539L27.3431 117.853L16.0294 129.167L95.2254 208.362L106.539 197.049ZM117.853 197.049L106.539 185.735C109.663 182.611 114.729 182.611 117.853 185.735L106.539 197.049L95.2254 208.362C104.598 217.735 119.794 217.735 129.167 208.362L117.853 197.049ZM197.049 106.539L185.735 117.853C182.611 114.729 182.611 109.663 185.735 106.539L197.049 117.853L208.362 129.167C217.735 119.794 217.735 104.598 208.362 95.2254L197.049 106.539ZM106.539 27.3431L117.853 38.6568C114.729 41.781 109.663 41.781 106.539 38.6568L117.853 27.3431L129.167 16.0294C119.794 6.65685 104.598 6.65685 95.2254 16.0294L106.539 27.3431ZM27.3431 106.539L16.0294 95.2254C6.65684 104.598 6.65684 119.794 16.0294 129.167L27.3431 117.853L38.6568 106.539C41.781 109.663 41.781 114.729 38.6568 117.853L27.3431 106.539Z" data-figma-gradient-fill="{&#34;type&#34;:&#34;GRADIENT_ANGULAR&#34;,&#34;stops&#34;:[{&#34;color&#34;:{&#34;r&#34;:1.0,&#34;g&#34;:1.0,&#34;b&#34;:0.62745100259780884,&#34;a&#34;:1.0},&#34;position&#34;:0.0},{&#34;color&#34;:{&#34;r&#34;:1.0,&#34;g&#34;:0.84313726425170898,&#34;b&#34;:0.0,&#34;a&#34;:1.0},&#34;position&#34;:0.06250},{&#34;color&#34;:{&#34;r&#34;:1.0,&#34;g&#34;:1.0,&#34;b&#34;:0.62745100259780884,&#34;a&#34;:1.0},&#34;position&#34;:0.1250},{&#34;color&#34;:{&#34;r&#34;:1.0,&#34;g&#34;:0.84313726425170898,&#34;b&#34;:0.0,&#34;a&#34;:1.0},&#34;position&#34;:0.18750},{&#34;color&#34;:{&#34;r&#34;:1.0,&#34;g&#34;:1.0,&#34;b&#34;:0.62745100259780884,&#34;a&#34;:1.0},&#34;position&#34;:0.250},{&#34;color&#34;:{&#34;r&#34;:1.0,&#34;g&#34;:0.84313726425170898,&#34;b&#34;:0.0,&#34;a&#34;:1.0},&#34;position&#34;:0.31250},{&#34;color&#34;:{&#34;r&#34;:1.0,&#34;g&#34;:1.0,&#34;b&#34;:0.62745100259780884,&#34;a&#34;:1.0},&#34;position&#34;:0.3750},{&#34;color&#34;:{&#34;r&#34;:1.0,&#34;g&#34;:0.84313726425170898,&#34;b&#34;:0.0,&#34;a&#34;:1.0},&#34;position&#34;:0.43750},{&#34;color&#34;:{&#34;r&#34;:1.0,&#34;g&#34;:1.0,&#34;b&#34;:0.62745100259780884,&#34;a&#34;:1.0},&#34;position&#34;:0.50},{&#34;color&#34;:{&#34;r&#34;:1.0,&#34;g&#34;:0.84313726425170898,&#34;b&#34;:0.0,&#34;a&#34;:1.0},&#34;position&#34;:0.56250},{&#34;color&#34;:{&#34;r&#34;:1.0,&#34;g&#34;:1.0,&#34;b&#34;:0.62745100259780884,&#34;a&#34;:1.0},&#34;position&#34;:0.6250},{&#34;color&#34;:{&#34;r&#34;:1.0,&#34;g&#34;:0.84313726425170898,&#34;b&#34;:0.0,&#34;a&#34;:1.0},&#34;position&#34;:0.68750},{&#34;color&#34;:{&#34;r&#34;:1.0,&#34;g&#34;:1.0,&#34;b&#34;:0.62745100259780884,&#34;a&#34;:1.0},&#34;position&#34;:0.750},{&#34;color&#34;:{&#34;r&#34;:1.0,&#34;g&#34;:0.84313726425170898,&#34;b&#34;:0.0,&#34;a&#34;:1.0},&#34;position&#34;:0.81250},{&#34;color&#34;:{&#34;r&#34;:1.0,&#34;g&#34;:1.0,&#34;b&#34;:0.62745100259780884,&#34;a&#34;:1.0},&#34;position&#34;:0.8750},{&#34;color&#34;:{&#34;r&#34;:1.0,&#34;g&#34;:0.84313726425170898,&#34;b&#34;:0.0,&#34;a&#34;:1.0},&#34;position&#34;:0.93750},{&#34;color&#34;:{&#34;r&#34;:1.0,&#34;g&#34;:1.0,&#34;b&#34;:0.62745100259780884,&#34;a&#34;:0.98039215803146362},&#34;position&#34;:1.0}],&#34;stopsVar&#34;:[{&#34;color&#34;:{&#34;r&#34;:1.0,&#34;g&#34;:1.0,&#34;b&#34;:0.62745100259780884,&#34;a&#34;:1.0},&#34;position&#34;:0.0},{&#34;color&#34;:{&#34;r&#34;:1.0,&#34;g&#34;:0.84313726425170898,&#34;b&#34;:0.0,&#34;a&#34;:1.0},&#34;position&#34;:0.06250},{&#34;color&#34;:{&#34;r&#34;:1.0,&#34;g&#34;:1.0,&#34;b&#34;:0.62745100259780884,&#34;a&#34;:1.0},&#34;position&#34;:0.1250},{&#34;color&#34;:{&#34;r&#34;:1.0,&#34;g&#34;:0.84313726425170898,&#34;b&#34;:0.0,&#34;a&#34;:1.0},&#34;position&#34;:0.18750},{&#34;color&#34;:{&#34;r&#34;:1.0,&#34;g&#34;:1.0,&#34;b&#34;:0.62745100259780884,&#34;a&#34;:1.0},&#34;position&#34;:0.250},{&#34;color&#34;:{&#34;r&#34;:1.0,&#34;g&#34;:0.84313726425170898,&#34;b&#34;:0.0,&#34;a&#34;:1.0},&#34;position&#34;:0.31250},{&#34;color&#34;:{&#34;r&#34;:1.0,&#34;g&#34;:1.0,&#34;b&#34;:0.62745100259780884,&#34;a&#34;:1.0},&#34;position&#34;:0.3750},{&#34;color&#34;:{&#34;r&#34;:1.0,&#34;g&#34;:0.84313726425170898,&#34;b&#34;:0.0,&#34;a&#34;:1.0},&#34;position&#34;:0.43750},{&#34;color&#34;:{&#34;r&#34;:1.0,&#34;g&#34;:1.0,&#34;b&#34;:0.62745100259780884,&#34;a&#34;:1.0},&#34;position&#34;:0.50},{&#34;color&#34;:{&#34;r&#34;:1.0,&#34;g&#34;:0.84313726425170898,&#34;b&#34;:0.0,&#34;a&#34;:1.0},&#34;position&#34;:0.56250},{&#34;color&#34;:{&#34;r&#34;:1.0,&#34;g&#34;:1.0,&#34;b&#34;:0.62745100259780884,&#34;a&#34;:1.0},&#34;position&#34;:0.6250},{&#34;color&#34;:{&#34;r&#34;:1.0,&#34;g&#34;:0.84313726425170898,&#34;b&#34;:0.0,&#34;a&#34;:1.0},&#34;position&#34;:0.68750},{&#34;color&#34;:{&#34;r&#34;:1.0,&#34;g&#34;:1.0,&#34;b&#34;:0.62745100259780884,&#34;a&#34;:1.0},&#34;position&#34;:0.750},{&#34;color&#34;:{&#34;r&#34;:1.0,&#34;g&#34;:0.84313726425170898,&#34;b&#34;:0.0,&#34;a&#34;:1.0},&#34;position&#34;:0.81250},{&#34;color&#34;:{&#34;r&#34;:1.0,&#34;g&#34;:1.0,&#34;b&#34;:0.62745100259780884,&#34;a&#34;:1.0},&#34;position&#34;:0.8750},{&#34;color&#34;:{&#34;r&#34;:1.0,&#34;g&#34;:0.84313726425170898,&#34;b&#34;:0.0,&#34;a&#34;:1.0},&#34;position&#34;:0.93750},{&#34;color&#34;:{&#34;r&#34;:1.0,&#34;g&#34;:1.0,&#34;b&#34;:0.62745100259780884,&#34;a&#34;:0.98039215803146362},&#34;position&#34;:1.0}],&#34;transform&#34;:{&#34;m00&#34;:90.509666442871094,&#34;m01&#34;:-90.509666442871094,&#34;m02&#34;:112.19594573974609,&#34;m10&#34;:90.509666442871094,&#34;m11&#34;:90.509666442871094,&#34;m12&#34;:21.686286926269531},&#34;opacity&#34;:1.0,&#34;blendMode&#34;:&#34;NORMAL&#34;,&#34;visible&#34;:true}" mask="url(#path-5-inside-1_18_48)"/>
</g>
<defs>
<filter id="filter0_d_18_48" x="68.8715" y="73.5329" width="125.16" height="122.415" filterUnits="userSpaceOnUse" color-interpolation-filters="sRGB">
<feFlood flood-opacity="0" result="BackgroundImageFix"/>
<feColorMatrix in="SourceAlpha" type="matrix" values="0 0 0 0 0 0 0 0 0 0 0 0 0 0 0 0 0 0 127 0" result="hardAlpha"/>
<feOffset dy="4"/>
<feGaussianBlur stdDeviation="2"/>
<feComposite in2="hardAlpha" operator="out"/>
<feColorMatrix type="matrix" values="0 0 0 0 0 0 0 0 0 0 0 0 0 0 0 0 0 0 0.25 0"/>
<feBlend mode="normal" in2="BackgroundImageFix" result="effect1_dropShadow_18_48"/>
<feBlend mode="normal" in="SourceGraphic" in2="effect1_dropShadow_18_48" result="shape"/>
</filter>
<filter id="filter1_d_18_48" x="0" y="0" width="224.392" height="224.392" filterUnits="userSpaceOnUse" color-interpolation-filters="sRGB">
<feFlood flood-opacity="0" result="BackgroundImageFix"/>
<feColorMatrix in="SourceAlpha" type="matrix" values="0 0 0 0 0 0 0 0 0 0 0 0 0 0 0 0 0 0 127 0" result="hardAlpha"/>
<feMorphology radius="5" operator="dilate" in="SourceAlpha" result="effect1_dropShadow_18_48"/>
<feOffset/>
<feGaussianBlur stdDeviation="10"/>
<feComposite in2="hardAlpha" operator="out"/>
<feColorMatrix type="matrix" values="0 0 0 0 1 0 0 0 0 0.843137 0 0 0 0 0 0 0 0 0.75 0"/>
<feBlend mode="normal" in2="BackgroundImageFix" result="effect1_dropShadow_18_48"/>
<feBlend mode="normal" in="SourceGraphic" in2="effect1_dropShadow_18_48" result="shape"/>
</filter>
<clipPath id="paint0_angular_18_48_clip_path"><path d="M27.3431 106.539L38.6568 117.853L117.853 38.6568L106.539 27.3431L95.2254 16.0294L16.0294 95.2254L27.3431 106.539ZM117.853 27.3431L106.539 38.6568L185.735 117.853L197.049 106.539L208.362 95.2254L129.167 16.0294L117.853 27.3431ZM197.049 117.853L185.735 106.539L106.539 185.735L117.853 197.049L129.167 208.362L208.362 129.167L197.049 117.853ZM106.539 197.049L117.853 185.735L38.6568 106.539L27.3431 117.853L16.0294 129.167L95.2254 208.362L106.539 197.049ZM117.853 197.049L106.539 185.735C109.663 182.611 114.729 182.611 117.853 185.735L106.539 197.049L95.2254 208.362C104.598 217.735 119.794 217.735 129.167 208.362L117.853 197.049ZM197.049 106.539L185.735 117.853C182.611 114.729 182.611 109.663 185.735 106.539L197.049 117.853L208.362 129.167C217.735 119.794 217.735 104.598 208.362 95.2254L197.049 106.539ZM106.539 27.3431L117.853 38.6568C114.729 41.781 109.663 41.781 106.539 38.6568L117.853 27.3431L129.167 16.0294C119.794 6.65685 104.598 6.65685 95.2254 16.0294L106.539 27.3431ZM27.3431 106.539L16.0294 95.2254C6.65684 104.598 6.65684 119.794 16.0294 129.167L27.3431 117.853L38.6568 106.539C41.781 109.663 41.781 114.729 38.6568 117.853L27.3431 106.539Z" mask="url(#path-5-inside-1_18_48)"/></clipPath></defs>
</svg>

<svg width="225" height="225" fill="none" xmlns="http://www.w3.org/2000/svg"><path fill="#B87333" d="m30.686 112.711 82.024-82.024 82.025 82.024-82.025 82.025z"/><g filter="url(#a)"><path d="m110.648 128.731-33.823 23.71 33.823 32.041 75.756-73.694-36.526-33.963-27.555 21.788-11.675 30.118z" fill="#4A3528"/><path d="m110.648 128.731-33.823 23.71 33.823 32.041 75.756-73.694-36.526-33.963-27.555 21.788-11.675 30.118z" stroke="#4A3528" stroke-width="5"/></g><path d="m93.486 99.894 1.282-9.351h8.971l-1.922 6.147v5.768l-8.33-2.564zM112.245 81.15l5.894-10.733 5.304 2.013 2.948 10.062-7.073 8.05-7.073-9.391zM70.821 123.536l6.136-16.032 13.089 7.457-1.637 13.049-17.588-4.474z" fill="#4A3528"/><g filter="url(#b)"><mask id="d" fill="#fff"><path d="M27.343 117.853a8 8 0 0 1 0-11.314l79.196-79.196a8 8 0 0 1 11.314 0l79.196 79.196a8 8 0 0 1 0 11.314l-79.196 79.196a8 8 0 0 1-11.314 0l-79.196-79.196z"/></mask><g clip-path="url(#c)" data-figma-skip-parse="true" mask="url(#d)"><foreignObject x="-1250" y="-1250" width="2500" height="2500" transform="rotate(45 -79.334 191.53) scale(.064)"><div xmlns="http://www.w3.org/1999/xhtml" style="background:conic-gradient(from 90deg,#ffffa0 0deg,gold 22.5deg,#ffffa0 45deg,gold 67.5deg,#ffffa0 90deg,gold 112.5deg,#ffffa0 135deg,gold 157.5deg,#ffffa0 180deg,gold 202.5deg,#ffffa0 225deg,gold 247.5deg,#ffffa0 270deg,gold 292.5deg,#ffffa0 315deg,gold 337.5deg,rgba(255,255,160,.9804) 360deg);height:100%;width:100%;opacity:1"/></foreignObject></g><path d="m27.343 106.539 11.314 11.314 79.196-79.196-11.314-11.314L95.225 16.03 16.03 95.225l11.314 11.314zm90.51-79.196-11.314 11.314 79.196 79.196 11.314-11.314 11.313-11.314-79.195-79.196-11.314 11.314zm79.196 90.51-11.314-11.314-79.196 79.196 11.314 11.314 11.314 11.313 79.195-79.195-11.313-11.314zm-90.51 79.196 11.314-11.314-79.196-79.196-11.314 11.314-11.314 11.314 79.196 79.195 11.314-11.313zm11.314 0-11.314-11.314a8 8 0 0 1 11.314 0l-11.314 11.314-11.314 11.313c9.373 9.373 24.569 9.373 33.942 0l-11.314-11.313zm79.196-90.51-11.314 11.314a8 8 0 0 1 0-11.314l11.314 11.314 11.313 11.314c9.373-9.373 9.373-24.569 0-33.942l-11.313 11.314zm-90.51-79.196 11.314 11.314a8 8 0 0 1-11.314 0l11.314-11.314 11.314-11.314c-9.373-9.372-24.569-9.372-33.942 0l11.314 11.314zM27.343 106.54 16.03 95.225c-9.372 9.373-9.372 24.569 0 33.942l11.314-11.314 11.314-11.314a8 8 0 0 1 0 11.314l-11.314-11.314z" data-figma-gradient-fill="{&quot;type&quot;:&quot;GRADIENT_ANGULAR&quot;,&quot;stops&quot;:[{&quot;color&quot;:{&quot;r&quot;:1.0,&quot;g&quot;:1.0,&quot;b&quot;:0.62745100259780884,&quot;a&quot;:1.0},&quot;position&quot;:0.0},{&quot;color&quot;:{&quot;r&quot;:1.0,&quot;g&quot;:0.84313726425170898,&quot;b&quot;:0.0,&quot;a&quot;:1.0},&quot;position&quot;:0.06250},{&quot;color&quot;:{&quot;r&quot;:1.0,&quot;g&quot;:1.0,&quot;b&quot;:0.62745100259780884,&quot;a&quot;:1.0},&quot;position&quot;:0.1250},{&quot;color&quot;:{&quot;r&quot;:1.0,&quot;g&quot;:0.84313726425170898,&quot;b&quot;:0.0,&quot;a&quot;:1.0},&quot;position&quot;:0.18750},{&quot;color&quot;:{&quot;r&quot;:1.0,&quot;g&quot;:1.0,&quot;b&quot;:0.62745100259780884,&quot;a&quot;:1.0},&quot;position&quot;:0.250},{&quot;color&quot;:{&quot;r&quot;:1.0,&quot;g&quot;:0.84313726425170898,&quot;b&quot;:0.0,&quot;a&quot;:1.0},&quot;position&quot;:0.31250},{&quot;color&quot;:{&quot;r&quot;:1.0,&quot;g&quot;:1.0,&quot;b&quot;:0.62745100259780884,&quot;a&quot;:1.0},&quot;position&quot;:0.3750},{&quot;color&quot;:{&quot;r&quot;:1.0,&quot;g&quot;:0.84313726425170898,&quot;b&quot;:0.0,&quot;a&quot;:1.0},&quot;position&quot;:0.43750},{&quot;color&quot;:{&quot;r&quot;:1.0,&quot;g&quot;:1.0,&quot;b&quot;:0.62745100259780884,&quot;a&quot;:1.0},&quot;position&quot;:0.50},{&quot;color&quot;:{&quot;r&quot;:1.0,&quot;g&quot;:0.84313726425170898,&quot;b&quot;:0.0,&quot;a&quot;:1.0},&quot;position&quot;:0.56250},{&quot;color&quot;:{&quot;r&quot;:1.0,&quot;g&quot;:1.0,&quot;b&quot;:0.62745100259780884,&quot;a&quot;:1.0},&quot;position&quot;:0.6250},{&quot;color&quot;:{&quot;r&quot;:1.0,&quot;g&quot;:0.84313726425170898,&quot;b&quot;:0.0,&quot;a&quot;:1.0},&quot;position&quot;:0.68750},{&quot;color&quot;:{&quot;r&quot;:1.0,&quot;g&quot;:1.0,&quot;b&quot;:0.62745100259780884,&quot;a&quot;:1.0},&quot;position&quot;:0.750},{&quot;color&quot;:{&quot;r&quot;:1.0,&quot;g&quot;:0.84313726425170898,&quot;b&quot;:0.0,&quot;a&quot;:1.0},&quot;position&quot;:0.81250},{&quot;color&quot;:{&quot;r&quot;:1.0,&quot;g&quot;:1.0,&quot;b&quot;:0.62745100259780884,&quot;a&quot;:1.0},&quot;position&quot;:0.8750},{&quot;color&quot;:{&quot;r&quot;:1.0,&quot;g&quot;:0.84313726425170898,&quot;b&quot;:0.0,&quot;a&quot;:1.0},&quot;position&quot;:0.93750},{&quot;color&quot;:{&quot;r&quot;:1.0,&quot;g&quot;:1.0,&quot;b&quot;:0.62745100259780884,&quot;a&quot;:0.98039215803146362},&quot;position&quot;:1.0}],&quot;stopsVar&quot;:[{&quot;color&quot;:{&quot;r&quot;:1.0,&quot;g&quot;:1.0,&quot;b&quot;:0.62745100259780884,&quot;a&quot;:1.0},&quot;position&quot;:0.0},{&quot;color&quot;:{&quot;r&quot;:1.0,&quot;g&quot;:0.84313726425170898,&quot;b&quot;:0.0,&quot;a&quot;:1.0},&quot;position&quot;:0.06250},{&quot;color&quot;:{&quot;r&quot;:1.0,&quot;g&quot;:1.0,&quot;b&quot;:0.62745100259780884,&quot;a&quot;:1.0},&quot;position&quot;:0.1250},{&quot;color&quot;:{&quot;r&quot;:1.0,&quot;g&quot;:0.84313726425170898,&quot;b&quot;:0.0,&quot;a&quot;:1.0},&quot;position&quot;:0.18750},{&quot;color&quot;:{&quot;r&quot;:1.0,&quot;g&quot;:1.0,&quot;b&quot;:0.62745100259780884,&quot;a&quot;:1.0},&quot;position&quot;:0.250},{&quot;color&quot;:{&quot;r&quot;:1.0,&quot;g&quot;:0.84313726425170898,&quot;b&quot;:0.0,&quot;a&quot;:1.0},&quot;position&quot;:0.31250},{&quot;color&quot;:{&quot;r&quot;:1.0,&quot;g&quot;:1.0,&quot;b&quot;:0.62745100259780884,&quot;a&quot;:1.0},&quot;position&quot;:0.3750},{&quot;color&quot;:{&quot;r&quot;:1.0,&quot;g&quot;:0.84313726425170898,&quot;b&quot;:0.0,&quot;a&quot;:1.0},&quot;position&quot;:0.43750},{&quot;color&quot;:{&quot;r&quot;:1.0,&quot;g&quot;:1.0,&quot;b&quot;:0.62745100259780884,&quot;a&quot;:1.0},&quot;position&quot;:0.50},{&quot;color&quot;:{&quot;r&quot;:1.0,&quot;g&quot;:0.84313726425170898,&quot;b&quot;:0.0,&quot;a&quot;:1.0},&quot;position&quot;:0.56250},{&quot;color&quot;:{&quot;r&quot;:1.0,&quot;g&quot;:1.0,&quot;b&quot;:0.62745100259780884,&quot;a&quot;:1.0},&quot;position&quot;:0.6250},{&quot;color&quot;:{&quot;r&quot;:1.0,&quot;g&quot;:0.84313726425170898,&quot;b&quot;:0.0,&quot;a&quot;:1.0},&quot;position&quot;:0.68750},{&quot;color&quot;:{&quot;r&quot;:1.0,&quot;g&quot;:1.0,&quot;b&quot;:0.62745100259780884,&quot;a&quot;:1.0},&quot;position&quot;:0.750},{&quot;color&quot;:{&quot;r&quot;:1.0,&quot;g&quot;:0.84313726425170898,&quot;b&quot;:0.0,&quot;a&quot;:1.0},&quot;position&quot;:0.81250},{&quot;color&quot;:{&quot;r&quot;:1.0,&quot;g&quot;:1.0,&quot;b&quot;:0.62745100259780884,&quot;a&quot;:1.0},&quot;position&quot;:0.8750},{&quot;color&quot;:{&quot;r&quot;:1.0,&quot;g&quot;:0.84313726425170898,&quot;b&quot;:0.0,&quot;a&quot;:1.0},&quot;position&quot;:0.93750},{&quot;color&quot;:{&quot;r&quot;:1.0,&quot;g&quot;:1.0,&quot;b&quot;:0.62745100259780884,&quot;a&quot;:0.98039215803146362},&quot;position&quot;:1.0}],&quot;transform&quot;:{&quot;m00&quot;:90.509666442871094,&quot;m01&quot;:-90.509666442871094,&quot;m02&quot;:112.19594573974609,&quot;m10&quot;:90.509666442871094,&quot;m11&quot;:90.509666442871094,&quot;m12&quot;:21.686286926269531},&quot;opacity&quot;:1.0,&quot;blendMode&quot;:&quot;NORMAL&quot;,&quot;visible&quot;:true}" mask="url(#d)"/></g><defs><filter id="a" x="68.871" y="73.533" width="125.16" height="122.415" filterUnits="userSpaceOnUse" color-interpolation-filters="sRGB"><feFlood flood-opacity="0" result="BackgroundImageFix"/><feColorMatrix in="SourceAlpha" values="0 0 0 0 0 0 0 0 0 0 0 0 0 0 0 0 0 0 127 0" result="hardAlpha"/><feOffset dy="4"/><feGaussianBlur stdDeviation="2"/><feComposite in2="hardAlpha" operator="out"/><feColorMatrix values="0 0 0 0 0 0 0 0 0 0 0 0 0 0 0 0 0 0 0.25 0"/><feBlend in2="BackgroundImageFix" result="effect1_dropShadow_18_48"/><feBlend in="SourceGraphic" in2="effect1_dropShadow_18_48" result="shape"/></filter><filter id="b" x="0" y="0" width="224.392" height="224.392" filterUnits="userSpaceOnUse" color-interpolation-filters="sRGB"><feFlood flood-opacity="0" result="BackgroundImageFix"/><feColorMatrix in="SourceAlpha" values="0 0 0 0 0 0 0 0 0 0 0 0 0 0 0 0 0 0 127 0" result="hardAlpha"/><feMorphology radius="5" operator="dilate" in="SourceAlpha" result="effect1_dropShadow_18_48"/><feOffset/><feGaussianBlur stdDeviation="10"/><feComposite in2="hardAlpha" operator="out"/><feColorMatrix values="0 0 0 0 1 0 0 0 0 0.843137 0 0 0 0 0 0 0 0 0.75 0"/><feBlend in2="BackgroundImageFix" result="effect1_dropShadow_18_48"/><feBlend in="SourceGraphic" in2="effect1_dropShadow_18_48" result="shape"/></filter><clipPath id="c"><path d="m27.343 106.539 11.314 11.314 79.196-79.196-11.314-11.314L95.225 16.03 16.03 95.225l11.314 11.314zm90.51-79.196-11.314 11.314 79.196 79.196 11.314-11.314 11.313-11.314-79.195-79.196-11.314 11.314zm79.196 90.51-11.314-11.314-79.196 79.196 11.314 11.314 11.314 11.313 79.195-79.195-11.313-11.314zm-90.51 79.196 11.314-11.314-79.196-79.196-11.314 11.314-11.314 11.314 79.196 79.195 11.314-11.313zm11.314 0-11.314-11.314a8 8 0 0 1 11.314 0l-11.314 11.314-11.314 11.313c9.373 9.373 24.569 9.373 33.942 0l-11.314-11.313zm79.196-90.51-11.314 11.314a8 8 0 0 1 0-11.314l11.314 11.314 11.313 11.314c9.373-9.373 9.373-24.569 0-33.942l-11.313 11.314zm-90.51-79.196 11.314 11.314a8 8 0 0 1-11.314 0l11.314-11.314 11.314-11.314c-9.373-9.372-24.569-9.372-33.942 0l11.314 11.314zM27.343 106.54 16.03 95.225c-9.372 9.373-9.372 24.569 0 33.942l11.314-11.314 11.314-11.314a8 8 0 0 1 0 11.314l-11.314-11.314z" mask="url(#d)"/></clipPath></defs></svg>
